X:633
T:Fr\"olicher Landmann
T:(The Happy Farmer) Op. 68 no. 10
T:Duo arrangement (equal instruments)
C:Robert Schumann, arr. Frank Nordberg
O:Germany
B:Schumann: "Album for the young" no. 10
N:Two part arrangement (equal instruments)
Z:Transcribed by Frank Nordberg - http://www.musicaviva.com
F:http://abc.musicaviva.com/tunes/schumann-robert/schm068-10/schm068-10-2m.abc
M:4/4
L:1/8
K:F
V:1
z|z A A z z A A z|z B B z z A A z|z B B2 z A A2|z G z F z E E :: (C|B3 A G3) (C|
V:2
(C|F3A c3) (F|Bdfd c3) (A|BGCB AFCA|E2D2C2) z::z|z C C z z B, B, (C|
%
V:1
BAGF G3) (C|F3) (A c3) (F|Bdfd c3) z|z B B2 z AAA|z B, z B, z A A:|
V:2
GFED E)C C(C|F3) (A c3) (F|Bdfd c3) (A|BGCB) (AFCA)|(G2 E2 F2) z:|
W:
W:
W:  From Musica Viva - http://www.musicaviva.com
W:  the Internet center for free sheet music downloads.
